X:1
T:There’s Grace and Glory, Too
T:There’s Grace and Glory, Too
T:Mary Hubbert Munford
T:Thomas M. Eastwood, 1907
T:Public Domain Courtesy of the Cyber Hymnal™
T:Public Domain Courtesy of the Cyber Hymnal™
C:Mary Hubbert Munford
Z:Public Domain
Z:Courtesy of the Cyber Hymnal™
%%score ( 1 2 ) ( 3 4 )
L:1/8
Q:1/4=97
M:4/4
K:Ab
V:1 treble 
V:2 treble 
V:3 bass 
V:4 bass 
V:1
 [CE]>[Cc] [CB]>[CA] [CE]2 [CF]2 | [DA]4 [DG]4 | [DE]>[DF] [DG]>[DF] [DE]2 [DF]2 | [CE]6 z2 | %4
w: 1.~O the grace of God is|bound- less,|It is like a migh- ty|sea,|
w: 2.~There is grace for each temp-|ta- tion,|There is strength for ev- ery|day,|
w: 3.~For the grace that God has|giv- en|I will praise Him in my|song;|
 [CE]>[Cc] [CB]>[CA] [CE]2 [CF]2 | [EG]4 [EB]4 | [=DB]>[DB] [D=A]>[DB] [_Ac]2 [A=d]2 | [Ge]6 z2 | %8
w: And it rolls on thro’ the|ag- es,|Bear- ing love to you and|me;|
w: There’s a lift for ev- ery|bur- den|That we car- ry on the|way;|
w: I will love Him and will|serve Him,|While my days of life pro-|long;|
 [Ge]>[Gd] [Gc]>[GB] [^F=A]2 [GB]2 | [Ac]4 [EA]4 | [=Ec]>[EG] [E^F]>[EG] [Ec]2 [EB]2 | [FA]6 z2 | %12
w: But the Lord’s so great in|good- ness,|That He o- pens Heav’n to|view,|
w: There’s a ref- uge from the|tem- pest,|There is help for all we|do;|
w: And when I shall get to|Hea- ven,|And my jour- ney I re-|view,|
 [FA]>[FA] [FG]>[FA] [Fd]2 [Af]2 | [Ae]4 [Ac]2 A[AB] | [Ac] [Ae]3 [Gc] [GB]3 | [EA]6 || %16
w: And not on- ly gives us|mer- cy, But He|gives us glo- ry,|too.|
w: And when we shall end the|jour- ney, We will|find there’s glo- ry,|too.|
w: Then I’ll bless His name for-|ev- er, That there’s|grace and glo- ry,|too.|
"^Refrain" [Ae]2 | e4- [Be][GB][Ge][Gd] | c3 [Ec]2 x3 | c4- [_Ec][EG][Ec][EB] | A6 [_GA]2 | %21
w: There’s|grace and glo- ry, too,|* There’s|grace and glo- ry, too;|* There’s|
w: |||||
w: |||||
 [FA]3 [FA] [Fd]2 [Af]2 | [Ae]2 [Ac]2 !fermata![FA]2 [AB]2 | [Ac] [Ae]3 [Gc] [GB]3 | [EA]6 z2 |] %25
w: grace be- low for|weal or woe, And|then there’s glo- ry,|too.|
w: ||||
w: ||||
V:2
 x8 | x8 | x8 | x8 | x8 | x8 | x8 | x8 | x8 | x8 | x8 | x8 | x8 | x6 A x | x8 | x6 || x2 | %17
 G2 A2 x4 | (AAGF E2) x2 | =E2 F2 x4 | (FFFF F2) x2 | x8 | x8 | x8 | x8 |] %25
V:3
 [A,,A,]>[A,,A,] [A,,A,]>[A,,A,] [A,,A,]2 [A,,A,]2 | [E,B,]4 [E,B,]4 | %2
w: ~ ~~ ~ ~ ~ ~|~ ~|
 [E,G,]>[E,A,] [E,B,]>[E,A,] [E,G,]2 [E,A,]2 | [A,,A,]6 z2 | %4
w: ~ ~ ~ ~ ~ ~|~|
 [A,,A,]>[A,,A,] [A,,A,]>[A,,A,] [A,,A,]2 [A,,A,]2 | [E,B,]4 [E,G,]4 | %6
w: ~ ~ ~ ~ ~ ~|~ ~|
 [B,,F,]>[B,,F,] [B,,F,]>[B,,F,] [B,,B,]2 [B,,B,]2 | [E,B,]6 z2 | %8
w: ~ ~ ~ ~ ~ ~|~|
 [E,B,]>[E,B,] [E,E]>[E,D] [E,C]2 [E,D]2 | [A,E]4 [A,C]4 | %10
w: ~ ~ ~ ~ ~ ~|~ ~|
 [C,C]>[C,B,] [C,=A,]>[C,B,] [C,C]2 [C,C]2 | [F,C]6 z2 | [D,D]>[D,D] [D,D]>[D,D] [D,D]2 [D,D]2 | %13
w: ~ ~ ~ ~ ~ ~|~|~ ~ ~ ~ ~ ~|
 [A,C]4 [A,E]2 [F,=D][F,D] | [E,E] [E,C]3 [E,E] [E,D]3 | [A,C]6 || [A,C]2 | %17
w: ~ ~ ~ ~|~ ~ ~ ~|~|~|
 [E,B,]2 [E,C]2 [E,D][E,E][E,B,][E,E] | EEEE C2 A,2 | G,2 A,2 [C,G,][C,C][C,C][C,C] | %20
w: There’s grace ~ ~ ~ ~|~ and glo- ry, too ~|~ There’s ~ ~ ~ ~|
 CCCC C2 [A,C]2 | [D,D]3 [D,D] [D,D]2 [D,D]2 | [A,C]2 [A,E]2 [F,=D]2 [_F,D]2 | %23
w: * and glo- ry, too, *|||
 [E,E] [E,C]3 [E,E] [E,D]3 | [A,C]6 z2 |] %25
w: ||
V:4
 x8 | x8 | x8 | x8 | x8 | x8 | x8 | x8 | x8 | x8 | x8 | x8 | x8 | x8 | x8 | x6 || x2 | x8 | %18
 A,6 A,2 | C,4- x4 | F,6 x2 | x8 | x8 | x8 | x8 |] %25

